X: 40904
T: Trim The Velvet
R: jig
M: 6/8
K: Dmixolydian
|:B2G AGE|ABA AGE|B2G AGE|GAG GED|
B2G AGE|ABA ABd|ede gdB|GAG GED:|
|:~D3 DED|ABA AGE|~D3 DED|GAG GED|
~D3 DED|ABA ABd|ede gdB|GAG GED:|

